public/svg/icons/night.svg

<svg width="102" height="69" viewBox="0 0 102 69" fill="none" xmlns="http://www.w3.org/2000/svg">
<path fill-rule="evenodd" clip-rule="evenodd" d="M87.9449 52.38C85.1127 53.2321 82.1098 53.69 79 53.69C61.8792 53.69 48 39.8108 48 22.69C48 15.2131 50.647 8.35442 55.0551 3C42.295 6.83899 33 18.679 33 32.69C33 49.8108 46.8792 63.69 64 63.69C73.6439 63.69 82.2593 59.2862 87.9449 52.38Z" fill="#A4BA04"/>
<path d="M87.9449 52.38L89.875 53.9689C90.5747 53.119 90.6361 51.9115 90.0262 50.995C89.4164 50.0785 88.2788 49.6688 87.2247 49.986L87.9449 52.38ZM55.0551 3L56.9852 4.58895C57.6848 3.73906 57.7462 2.53152 57.1364 1.61504C56.5265 0.698561 55.389 0.288845 54.3348 0.606002L55.0551 3ZM87.2247 49.986C84.6236 50.7685 81.8632 51.19 79 51.19V56.19C82.3564 56.19 85.6019 55.6956 88.6652 54.774L87.2247 49.986ZM79 51.19C63.2599 51.19 50.5 38.4301 50.5 22.69H45.5C45.5 41.1915 60.4985 56.19 79 56.19V51.19ZM50.5 22.69C50.5 15.8138 52.932 9.51232 56.9852 4.58895L53.125 1.41105C48.3621 7.19651 45.5 14.6123 45.5 22.69H50.5ZM35.5 32.69C35.5 19.8126 44.0425 8.92395 55.7753 5.394L54.3348 0.606002C40.5476 4.75403 30.5 17.5454 30.5 32.69H35.5ZM64 61.19C48.2599 61.19 35.5 48.4301 35.5 32.69H30.5C30.5 51.1915 45.4985 66.19 64 66.19V61.19ZM86.0148 50.791C80.7837 57.1452 72.8653 61.19 64 61.19V66.19C74.4226 66.19 83.7349 61.4273 89.875 53.9689L86.0148 50.791Z" fill="#679100"/>
<path fill-rule="evenodd" clip-rule="evenodd" d="M44 66H28H10.5H10V65.9836C6.09098 65.7263 3 62.4741 3 58.5C3 54.3579 6.35786 51 10.5 51C12.1925 51 13.7541 51.5607 15.0092 52.5064C15.2687 45.5554 20.9856 40 28 40C33.0312 40 37.3949 42.8581 39.556 47.0393C40.8947 46.374 42.4037 46 44 46C49.5228 46 54 50.4772 54 56C54 61.1853 50.0533 65.4489 45 65.9506V66H44Z" fill="white"/>
<path d="M10 66H7.5C7.5 67.3807 8.61929 68.5 10 68.5V66ZM10 65.9836H12.5C12.5 64.6666 11.4783 63.5755 10.1642 63.489L10 65.9836ZM15.0092 52.5064L13.5047 54.503C14.2484 55.0634 15.2419 55.164 16.0828 54.7641C16.9237 54.3642 17.4727 53.5302 17.5075 52.5996L15.0092 52.5064ZM39.556 47.0393L37.3351 48.1872C37.9619 49.4 39.4458 49.8856 40.6684 49.2781L39.556 47.0393ZM45 65.9506L44.753 63.4629C43.4742 63.5898 42.5 64.6656 42.5 65.9506H45ZM45 66V68.5C46.3807 68.5 47.5 67.3807 47.5 66H45ZM44 63.5H28V68.5H44V63.5ZM28 63.5H10.5V68.5H28V63.5ZM10.5 63.5H10V68.5H10.5V63.5ZM12.5 66V65.9836H7.5V66H12.5ZM10.1642 63.489C7.56058 63.3176 5.5 61.1484 5.5 58.5H0.5C0.5 63.7998 4.62139 68.135 9.8358 68.4782L10.1642 63.489ZM5.5 58.5C5.5 55.7386 7.73858 53.5 10.5 53.5V48.5C4.97715 48.5 0.5 52.9772 0.5 58.5H5.5ZM10.5 53.5C11.6312 53.5 12.6682 53.8727 13.5047 54.503L16.5137 50.5098C14.8401 49.2486 12.7539 48.5 10.5 48.5V53.5ZM17.5075 52.5996C17.717 46.9871 22.3351 42.5 28 42.5V37.5C19.6361 37.5 12.8204 44.1237 12.5109 52.4131L17.5075 52.5996ZM28 42.5C32.0601 42.5 35.5864 44.8038 37.3351 48.1872L41.7768 45.8914C39.2034 40.9124 34.0023 37.5 28 37.5V42.5ZM40.6684 49.2781C41.6692 48.7808 42.7982 48.5 44 48.5V43.5C42.0091 43.5 40.1202 43.9673 38.4435 44.8004L40.6684 49.2781ZM44 48.5C48.1421 48.5 51.5 51.8579 51.5 56H56.5C56.5 49.0964 50.9036 43.5 44 43.5V48.5ZM51.5 56C51.5 59.8875 48.5403 63.0868 44.753 63.4629L45.247 68.4384C51.5663 67.811 56.5 62.4832 56.5 56H51.5ZM42.5 65.9506V66H47.5V65.9506H42.5ZM45 63.5H44V68.5H45V63.5Z" fill="#434343"/>
<path d="M74 15L74 28" stroke="#F55E21" stroke-width="5" stroke-linecap="round" stroke-linejoin="round"/>
<path d="M95 29L95 40" stroke="#F55E21" stroke-width="5" stroke-linecap="round" stroke-linejoin="round"/>
<path d="M70 21H78" stroke="#F55E21" stroke-width="5" stroke-linecap="round" stroke-linejoin="round"/>
<path d="M91 34H99" stroke="#F55E21" stroke-width="5" stroke-linecap="round" stroke-linejoin="round"/>
</svg>

<svg width="102" height="69" fill="none" xmlns="http://www.w3.org/2000/svg"><path fill-rule="evenodd" clip-rule="evenodd" d="M87.945 52.38A31.001 31.001 0 0179 53.69c-17.12 0-31-13.88-31-31A30.873 30.873 0 0155.055 3C42.295 6.839 33 18.679 33 32.69c0 17.12 13.88 31 31 31 9.644 0 18.26-4.404 23.945-11.31z" fill="#A4BA04"/><path d="M87.945 52.38l1.93 1.589a2.5 2.5 0 00-2.65-3.983l.72 2.394zM55.055 3l1.93 1.589a2.5 2.5 0 00-2.65-3.983L55.055 3zm32.17 46.986A28.504 28.504 0 0179 51.19v5c3.356 0 6.602-.494 9.665-1.416l-1.44-4.788zM79 51.19c-15.74 0-28.5-12.76-28.5-28.5h-5c0 18.501 14.998 33.5 33.5 33.5v-5zm-28.5-28.5a28.373 28.373 0 016.485-18.101l-3.86-3.178A33.373 33.373 0 0045.5 22.69h5zm-15 10c0-12.877 8.542-23.766 20.275-27.296L54.335.606C40.548 4.754 30.5 17.546 30.5 32.69h5zM64 61.19c-15.74 0-28.5-12.76-28.5-28.5h-5c0 18.502 14.998 33.5 33.5 33.5v-5zm22.015-10.399C80.784 57.145 72.865 61.19 64 61.19v5c10.423 0 19.735-4.763 25.875-12.221l-3.86-3.178z" fill="#679100"/><path fill-rule="evenodd" clip-rule="evenodd" d="M44 66H10v-.016a7.5 7.5 0 115.01-13.478C15.268 45.556 20.985 40 28 40a13 13 0 0111.556 7.04A9.958 9.958 0 0144 46c5.523 0 10 4.477 10 10 0 5.185-3.947 9.449-9 9.95V66h-1z" fill="#fff"/><path d="M10 66H7.5a2.5 2.5 0 002.5 2.5V66zm0-.016h2.5a2.5 2.5 0 00-2.336-2.495L10 65.984zm5.01-13.478l-1.505 1.997a2.5 2.5 0 004.002-1.903l-2.498-.094zm24.546-5.467l-2.22 1.148a2.5 2.5 0 003.332 1.091l-1.112-2.239zM45 65.951l-.247-2.488A2.5 2.5 0 0042.5 65.95H45zM45 66v2.5a2.5 2.5 0 002.5-2.5H45zm-1-2.5H28v5h16v-5zm-16 0H10.5v5H28v-5zm-17.5 0H10v5h.5v-5zm2 2.5v-.016h-5V66h5zm-2.336-2.511A5 5 0 015.5 58.5h-5c0 5.3 4.121 9.635 9.336 9.978l.328-4.989zM5.5 58.5a5 5 0 015-5v-5c-5.523 0-10 4.477-10 10h5zm5-5c1.131 0 2.168.373 3.005 1.003l3.009-3.993A9.966 9.966 0 0010.5 48.5v5zm7.008-.9c.209-5.613 4.827-10.1 10.492-10.1v-5c-8.364 0-15.18 6.624-15.49 14.913l4.998.187zM28 42.5a10.5 10.5 0 019.335 5.687l4.442-2.296C39.203 40.912 34.002 37.5 28 37.5v5zm12.668 6.778A7.465 7.465 0 0144 48.5v-5c-1.99 0-3.88.467-5.556 1.3l2.224 4.478zM44 48.5a7.5 7.5 0 017.5 7.5h5c0-6.904-5.596-12.5-12.5-12.5v5zm7.5 7.5a7.501 7.501 0 01-6.747 7.463l.494 4.975C51.567 67.811 56.5 62.483 56.5 56h-5zm-9 9.95V66h5v-.05h-5zM45 63.5h-1v5h1v-5z" fill="#434343"/><path d="M74 15v13m21 1v11M70 21h8m13 13h8" stroke="#F55E21" stroke-width="5" stroke-linecap="round" stroke-linejoin="round"/></svg>
